packages/bezier-icons/icons/call-push-off-filled.svg

<svg width="24" height="24" viewBox="0 0 24 24" fill="none" xmlns="http://www.w3.org/2000/svg">
<path fill-rule="evenodd" clip-rule="evenodd" d="M3.70711 2.70711C3.31658 3.09763 3.31658 3.7308 3.70711 4.12132L20.6777 21.0919C21.0682 21.4824 21.7014 21.4824 22.0919 21.0919C22.4824 20.7014 22.4824 20.0682 22.0919 19.6777L18.4944 16.0802C19.2884 16.2972 20.1411 16.324 20.6739 16.2174C21.6847 16.0348 22.5 14.8478 22.5 13.4783C22.5 11.1957 19.3044 8 12 8C11.4661 8 10.9542 8.01707 10.4638 8.04961L5.12132 2.70711C4.7308 2.31658 4.09763 2.31658 3.70711 2.70711ZM13.5464 11.1322L16.4577 14.0435C16.4099 13.7614 16.3881 13.4757 16.3678 13.2112C16.3298 12.713 16.2974 12.2901 16.1087 12.1087C15.7778 11.7907 14.815 11.3497 13.5464 11.1322ZM1.5 13.4783C1.49999 11.8405 3.14509 9.73274 6.77251 8.67252L9.46148 11.3615C8.69263 11.5884 8.12895 11.8803 7.89131 12.1087C7.70258 12.2901 7.67024 12.713 7.63216 13.2112C7.57832 13.9153 7.513 14.7696 6.97826 15.3043C6.09161 16.191 4.23913 16.4 3.32609 16.2174C2.31536 16.0348 1.50001 14.8478 1.5 13.4783Z" fill="#313234"/>
</svg>

<svg xmlns="http://www.w3.org/2000/svg" width="24" height="24" fill="none" viewBox="0 0 24 24"><path fill="#313234" fill-rule="evenodd" d="M3.707 2.707a1 1 0 0 0 0 1.414l16.97 16.97a1 1 0 0 0 1.415-1.413l-3.598-3.598c.794.217 1.647.244 2.18.137 1.01-.182 1.826-1.37 1.826-2.739C22.5 11.196 19.304 8 12 8q-.801 0-1.536.05L5.12 2.707a1 1 0 0 0-1.414 0m9.84 8.425 2.91 2.912c-.047-.283-.069-.568-.09-.833-.037-.498-.07-.92-.258-1.102-.331-.318-1.294-.76-2.563-.977M1.5 13.478c0-1.637 1.645-3.745 5.273-4.805L9.46 11.36c-.768.227-1.332.52-1.57.748-.188.181-.22.604-.259 1.102-.054.704-.119 1.559-.654 2.093-.886.887-2.739 1.096-3.652.913-1.01-.182-1.826-1.37-1.826-2.739" clip-rule="evenodd"/></svg>
